svg/emoji_u1f92e.svg

<?xml version="1.0" encoding="UTF-8" standalone="no"?>
<svg
   xmlns:dc="http://purl.org/dc/elements/1.1/"
   xmlns:cc="http://creativecommons.org/ns#"
   xmlns:rdf="http://www.w3.org/1999/02/22-rdf-syntax-ns#"
   xmlns:svg="http://www.w3.org/2000/svg"
   xmlns="http://www.w3.org/2000/svg"
   xmlns:xlink="http://www.w3.org/1999/xlink"
   xmlns:sodipodi="http://sodipodi.sourceforge.net/DTD/sodipodi-0.dtd"
   xmlns:inkscape="http://www.inkscape.org/namespaces/inkscape"
   width="128"
   height="128"
   style="enable-background:new 0 0 128 128;"
   version="1.1"
   id="svg106"
   sodipodi:docname="emoji_u1f92e.svg"
   inkscape:version="0.92+devel unknown">
  <metadata
     id="metadata112">
    <rdf:RDF>
      <cc:Work
         rdf:about="">
        <dc:format>image/svg+xml</dc:format>
        <dc:type
           rdf:resource="http://purl.org/dc/dcmitype/StillImage" />
      </cc:Work>
    </rdf:RDF>
  </metadata>
  <defs
     id="defs110">
    <linearGradient
       inkscape:collect="always"
       id="linearGradient4339">
      <stop
         style="stop-color:#ed6c30;stop-opacity:1;"
         offset="0"
         id="stop4335" />
      <stop
         style="stop-color:#d55215;stop-opacity:1"
         offset="1"
         id="stop4337" />
    </linearGradient>
    <linearGradient
       inkscape:collect="always"
       id="linearGradient4407">
      <stop
         style="stop-color:#709d2f;stop-opacity:0.06460132"
         offset="0"
         id="stop4403" />
      <stop
         id="stop4411"
         offset="0.07877596"
         style="stop-color:#6c9d2f;stop-opacity:1" />
      <stop
         style="stop-color:#849d2f;stop-opacity:1"
         offset="1"
         id="stop4405" />
    </linearGradient>
    <linearGradient
       inkscape:collect="always"
       xlink:href="#linearGradient4407"
       id="linearGradient4409"
       x1="62.466011"
       y1="73.074959"
       x2="63.507923"
       y2="128.1507"
       gradientUnits="userSpaceOnUse" />
    <linearGradient
       gradientTransform="translate(-23.170334,-72.925099)"
       inkscape:collect="always"
       xlink:href="#linearGradient4407"
       id="linearGradient4409-5"
       x1="62.466011"
       y1="73.074959"
       x2="63.507923"
       y2="128.1507"
       gradientUnits="userSpaceOnUse" />
    <linearGradient
       inkscape:collect="always"
       xlink:href="#linearGradient4407"
       id="linearGradient4285"
       gradientUnits="userSpaceOnUse"
       x1="62.466011"
       y1="73.074959"
       x2="63.507923"
       y2="128.1507"
       gradientTransform="matrix(1.129409,0,0,0.94586846,-8.3296431,6.9161351)" />
    <linearGradient
       inkscape:collect="always"
       xlink:href="#linearGradient4407"
       id="linearGradient4315"
       gradientUnits="userSpaceOnUse"
       gradientTransform="matrix(1.129409,0,0,0.94586846,-8.3296431,6.9161351)"
       x1="62.466011"
       y1="73.074959"
       x2="63.507923"
       y2="128.1507" />
    <linearGradient
       inkscape:collect="always"
       xlink:href="#linearGradient4339"
       id="linearGradient4341"
       x1="62.362354"
       y1="98.173782"
       x2="62.362354"
       y2="76.261452"
       gradientUnits="userSpaceOnUse" />
  </defs>
  <sodipodi:namedview
     pagecolor="#ffffff"
     bordercolor="#666666"
     inkscape:document-rotation="0"
     borderopacity="1"
     objecttolerance="10"
     gridtolerance="10"
     guidetolerance="10"
     inkscape:pageopacity="0"
     inkscape:pageshadow="2"
     inkscape:window-width="1680"
     inkscape:window-height="986"
     id="namedview108"
     showgrid="false"
     inkscape:zoom="3.8504175"
     inkscape:cx="42.92701"
     inkscape:cy="43.180335"
     inkscape:window-x="0"
     inkscape:window-y="27"
     inkscape:window-maximized="1"
     inkscape:current-layer="svg106" />
  <path
     d="M63.79,8.64C1.48,8.64,0,78.5,0,92.33c0,13.83,28.56,25.03,63.79,25.03 c35.24,0,63.79-11.21,63.79-25.03C127.58,78.5,126.11,8.64,63.79,8.64z"
     style="fill:#e2d635;fill-opacity:1"
     id="path2" />
  <path
     d="m 96.46,97.460357 c -3.09,1.471172 -6.98,0.499776 -10.42,0 -9.58,-1.393743 -18,-1.450055 -22.04,-1.450055 -4.04,0 -12.46,0.05631 -22.04,1.450055 -3.44,0.499776 -7.33,1.471172 -10.42,0 -3.92,-1.865362 -1.03,-8.55251 5.14,-13.071614 3.73,-2.731171 12.61,-8.031616 27.32,-8.031616 14.71,0 23.59,5.300445 27.32,8.031616 6.17,4.519104 9.05,11.206252 5.14,13.071614 z"
     style="fill:url(#linearGradient4341);stroke-width:1;fill-opacity:1"
     id="path104"
     inkscape:connector-curvature="0" />
  <g
     transform="translate(-0.21,-4.62)"
     id="g8">
    <path
       inkscape:connector-curvature="0"
       d="m 98.98,61.36 c -0.4,1.17 -1.54,1.86 -2.72,1.76 -0.21,-0.02 -0.42,-0.06 -0.63,-0.13 -8.11,-2.79 -18.7,-1.77 -18.79,-1.76 -1.21,0.12 -2.3,-0.58 -2.73,-1.68 -0.43,-1.11 -0.04,-2.37 0.91,-3.07 8.51,-6.17 21,-9.13 21.52,-9.24 1.43,-0.33 2.84,0.55 3.17,1.97 0.32,1.41 -0.56,2.83 -1.97,3.16 -0.07,0.01 -5.19,1.22 -10.85,3.61 3.28,0.19 7.04,0.87 10.45,2.03 1.38,0.48 2.11,1.98 1.64,3.35 z"
       style="fill:#2f2f2f"
       id="path4" />
    <path
       inkscape:connector-curvature="0"
       d="m 29.44,61.36 c 0.4,1.17 1.54,1.86 2.72,1.76 0.21,-0.02 0.42,-0.06 0.63,-0.13 8.11,-2.79 18.7,-1.77 18.79,-1.76 1.21,0.12 2.3,-0.58 2.73,-1.68 0.43,-1.11 0.04,-2.37 -0.91,-3.07 -8.51,-6.17 -21,-9.13 -21.52,-9.24 -1.43,-0.33 -2.84,0.55 -3.17,1.97 -0.32,1.41 0.56,2.83 1.97,3.16 0.07,0.01 5.19,1.22 10.85,3.61 -3.28,0.19 -7.04,0.87 -10.45,2.03 -1.39,0.48 -2.12,1.98 -1.64,3.35 z"
       style="fill:#2f2f2f"
       id="path6" />
  </g>
  <g
     transform="translate(0.005,-7.5238309)"
     id="g16">
    <path
       inkscape:connector-curvature="0"
       d="m 35.58,38.61 c 0,0 -4.6,2.1 -6.19,7.73"
       style="fill:none;stroke:#2f2f2f;stroke-width:3;stroke-linecap:round;stroke-miterlimit:10"
       id="path12" />
    <path
       inkscape:connector-curvature="0"
       d="m 91.65,38.96 c 0,0 4.79,1.61 6.95,7.05"
       style="fill:none;stroke:#2f2f2f;stroke-width:3;stroke-linecap:round;stroke-miterlimit:10"
       id="path14" />
  </g>
  <path
     style="opacity:1;vector-effect:none;fill:url(#linearGradient4285);fill-opacity:1;fill-rule:evenodd;stroke:none;stroke-width:3.77952766;stroke-linecap:round;stroke-linejoin:round;stroke-miterlimit:4;stroke-dasharray:none;stroke-dashoffset:0;stroke-opacity:1"
     d="M 55.267578 75.994141 C 54.537889 76.03732 53.836123 76.099101 53.162109 76.175781 C 53.835258 76.09894 54.538732 76.037481 55.267578 75.994141 z M 53.085938 76.181641 C 52.556791 76.243084 52.071598 76.326866 51.587891 76.412109 C 52.071278 76.326675 52.557077 76.243258 53.085938 76.181641 z M 64 76.357422 C 56.848866 76.357422 51.086898 77.613664 46.613281 79.214844 C 46.606663 79.243126 46.591391 79.268142 46.585938 79.296875 C 46.585938 79.296875 42.385833 99.361263 36.927734 104.95898 C 31.469635 110.5567 21.277344 118.61523 21.277344 118.61523 C 21.277344 118.61523 15.269342 122.04168 19.138672 125.14453 C 23.008002 128.24738 59.615234 127.73438 59.615234 127.73438 C 59.615234 127.73438 101.16997 126.38077 107.24805 125.32617 C 113.32613 124.27158 108.00586 117.97461 108.00586 117.97461 C 108.00586 117.97461 96.938418 109.21975 91.669922 101.88672 C 86.401427 94.553685 79.974609 81.064453 79.974609 81.064453 C 79.974609 81.064453 79.245332 79.405299 77.970703 78.138672 C 74.08837 77.084986 69.446042 76.357422 64 76.357422 z M 77.970703 78.138672 C 77.775571 77.944765 77.570055 77.763678 77.349609 77.595703 C 77.568395 77.763283 77.776389 77.945577 77.970703 78.138672 z M 46.613281 79.214844 C 46.653951 79.041058 46.715731 78.875967 46.798828 78.71875 C 46.715814 78.875782 46.653906 79.041253 46.613281 79.214844 z M 46.798828 78.71875 C 47.048119 78.247099 47.484183 77.847199 48.068359 77.511719 C 47.482504 77.847281 47.048502 78.246462 46.798828 78.71875 z M 48.068359 77.511719 C 48.263085 77.399892 48.474454 77.295401 48.701172 77.197266 C 48.473775 77.295384 48.263654 77.399859 48.068359 77.511719 z M 48.701172 77.197266 C 49.154607 77.000994 49.668624 76.831369 50.234375 76.685547 C 49.668197 76.830993 49.155111 77.001397 48.701172 77.197266 z M 69.634766 76.378906 C 72.206119 76.571621 74.210858 76.746602 74.957031 76.728516 C 74.211073 76.746599 72.205173 76.571459 69.634766 76.378906 z M 51.099609 76.488281 C 50.801201 76.548104 50.51185 76.614806 50.236328 76.685547 C 50.512454 76.614413 50.80044 76.548423 51.099609 76.488281 z M 75.464844 76.759766 C 75.525156 76.767904 75.583315 76.78159 75.642578 76.792969 C 75.583373 76.781639 75.525067 76.767882 75.464844 76.759766 z M 75.958984 76.867188 C 76.022012 76.885718 76.084753 76.903859 76.146484 76.925781 C 76.084836 76.90404 76.0219 76.885571 75.958984 76.867188 z M 76.425781 77.039062 C 76.487523 77.066695 76.551001 77.092337 76.611328 77.123047 C 76.550664 77.092368 76.487862 77.066652 76.425781 77.039062 z M 76.617188 77.126953 C 76.856721 77.249406 77.084058 77.396394 77.300781 77.558594 C 77.083568 77.396884 76.857349 77.248911 76.617188 77.126953 z "
     id="path4401" />
  <path
     style="opacity:1;vector-effect:none;fill:url(#linearGradient4409);fill-opacity:1;fill-rule:evenodd;stroke:none;stroke-width:3.77952766;stroke-linecap:round;stroke-linejoin:round;stroke-miterlimit:4;stroke-dasharray:none;stroke-dashoffset:0;stroke-opacity:1"
     d="m 114.4582,119.97147 c 0,0 -2.09546,-0.99712 -2.55695,0.36859 -0.4615,1.3657 -0.37665,2.1417 1.23858,2.7039 1.61523,0.5622 4.18285,1.13662 4.86941,0.27428 0.68655,-0.86234 0.23058,-1.90906 -1.06494,-2.41947 -1.29552,-0.5104 -2.4861,-0.9273 -2.4861,-0.9273 z"
     id="path4413"
     inkscape:connector-curvature="0" />
  <rect
     style="opacity:1;vector-effect:none;fill:#c19d2f;fill-opacity:0.78264142;stroke:none;stroke-width:3.77952766;stroke-linecap:round;stroke-linejoin:round;stroke-miterlimit:4;stroke-dasharray:none;stroke-dashoffset:0;stroke-opacity:1"
     id="rect4447"
     width="2.4453332"
     height="2.3836727"
     x="105.53337"
     y="63.488602"
     rx="0.69999999"
     ry="0.69999999"
     transform="rotate(30.556956)" />
  <rect
     transform="rotate(-28.076325)"
     ry="0.69999999"
     rx="0.69999999"
     y="127.33865"
     x="16.133873"
     height="2.3836727"
     width="2.4453332"
     id="rect4451"
     style="opacity:1;vector-effect:none;fill:#c18b2f;fill-opacity:0.78264141;stroke:none;stroke-width:3.77952766;stroke-linecap:round;stroke-linejoin:round;stroke-miterlimit:4;stroke-dasharray:none;stroke-dashoffset:0;stroke-opacity:1" />
  <rect
     style="opacity:1;vector-effect:none;fill:#c18b2f;fill-opacity:0.78264142;stroke:none;stroke-width:3.77952766;stroke-linecap:round;stroke-linejoin:round;stroke-miterlimit:4;stroke-dasharray:none;stroke-dashoffset:0;stroke-opacity:1"
     id="rect4453"
     width="1.6077106"
     height="1.5671712"
     x="103.86711"
     y="44.776253"
     rx="0.70000005"
     ry="0.70000005"
     transform="rotate(31.248343)"
     inkscape:transform-center-x="-0.0041437414"
     inkscape:transform-center-y="0.010010577" />
  <rect
     transform="rotate(75.38514)"
     ry="0.69999999"
     rx="0.69999999"
     y="-19.302908"
     x="115.71747"
     height="2.3836727"
     width="2.4453332"
     id="rect4455"
     style="opacity:1;vector-effect:none;fill:#ca9d2f;fill-opacity:0.78264142;stroke:none;stroke-width:3.77952766;stroke-linecap:round;stroke-linejoin:round;stroke-miterlimit:4;stroke-dasharray:none;stroke-dashoffset:0;stroke-opacity:1" />
  <rect
     style="opacity:1;vector-effect:none;fill:#ca9d2f;fill-opacity:0.78264142;stroke:none;stroke-width:3.78004313;stroke-linecap:round;stroke-linejoin:round;stroke-miterlimit:4;stroke-dasharray:none;stroke-dashoffset:0;stroke-opacity:1"
     id="rect4457"
     width="1.9635308"
     height="1.8357999"
     x="101.15729"
     y="-28.551708"
     rx="0.69982445"
     ry="0.69979256"
     transform="matrix(0.24123938,0.97046564,-0.96456693,0.26383829,0,0)" />
  <rect
     style="opacity:1;vector-effect:none;fill:#6a8b2f;fill-opacity:0.78264141;stroke:none;stroke-width:3.77952766;stroke-linecap:round;stroke-linejoin:round;stroke-miterlimit:4;stroke-dasharray:none;stroke-dashoffset:0;stroke-opacity:1"
     id="rect4459"
     width="2.4453332"
     height="2.3836727"
     x="-141.29988"
     y="39.599808"
     rx="0.69999999"
     ry="0.69999999"
     transform="rotate(-110.16751)" />
  <path
     style="opacity:1;vector-effect:none;fill:url(#linearGradient4315);fill-opacity:1;fill-rule:evenodd;stroke:none;stroke-width:3.77952766;stroke-linecap:round;stroke-linejoin:round;stroke-miterlimit:4;stroke-dasharray:none;stroke-dashoffset:0;stroke-opacity:1"
     d="m 78.507812,78.734375 c 0.08807,0.106702 0.173226,0.213605 0.253907,0.320313 -0.08181,-0.108646 -0.164396,-0.211681 -0.253907,-0.320313 z"
     id="path4330" />
  <path
     style="opacity:1;vector-effect:none;fill:url(#linearGradient4315);fill-opacity:1;fill-rule:evenodd;stroke:none;stroke-width:3.77952766;stroke-linecap:round;stroke-linejoin:round;stroke-miterlimit:4;stroke-dasharray:none;stroke-dashoffset:0;stroke-opacity:1"
     d="m 78.900391,79.248047 c 0.190572,0.265073 0.362577,0.521923 0.503906,0.755859 -0.142202,-0.237391 -0.310559,-0.485952 -0.503906,-0.755859 z"
     id="path4328" />
  <path
     style="opacity:1;vector-effect:none;fill:url(#linearGradient4315);fill-opacity:1;fill-rule:evenodd;stroke:none;stroke-width:3.77952766;stroke-linecap:round;stroke-linejoin:round;stroke-miterlimit:4;stroke-dasharray:none;stroke-dashoffset:0;stroke-opacity:1"
     d="m 46.585938,79.296875 c 0,0 -0.274449,1.198954 -0.5,2.177734 0.30543,-1.297149 0.5,-2.177734 0.5,-2.177734 z"
     id="path4326" />
  <path
     style="opacity:1;vector-effect:none;fill:url(#linearGradient4315);fill-opacity:1;fill-rule:evenodd;stroke:none;stroke-width:3.77952766;stroke-linecap:round;stroke-linejoin:round;stroke-miterlimit:4;stroke-dasharray:none;stroke-dashoffset:0;stroke-opacity:1"
     d="m 79.486328,80.142578 c 0.298249,0.5137 0.488281,0.921875 0.488281,0.921875 0,0 -0.180478,-0.391979 -0.488281,-0.921875 z"
     id="path4324" />
</svg>

<svg xmlns="http://www.w3.org/2000/svg" xmlns:xlink="http://www.w3.org/1999/xlink" width="128" height="128"><defs><linearGradient id="b"><stop offset="0" stop-color="#ed6c30"/><stop offset="1" stop-color="#d55215"/></linearGradient><linearGradient id="a"><stop offset="0" stop-color="#709d2f" stop-opacity=".065"/><stop offset=".079" stop-color="#6c9d2f"/><stop offset="1" stop-color="#849d2f"/></linearGradient><linearGradient xlink:href="#a" id="e" x1="62.466" y1="73.075" x2="63.508" y2="128.151" gradientUnits="userSpaceOnUse"/><linearGradient xlink:href="#a" id="d" gradientUnits="userSpaceOnUse" x1="62.466" y1="73.075" x2="63.508" y2="128.151" gradientTransform="matrix(1.1294 0 0 .94587 -8.33 6.916)"/><linearGradient xlink:href="#a" id="f" gradientUnits="userSpaceOnUse" gradientTransform="matrix(1.1294 0 0 .94587 -8.33 6.916)" x1="62.466" y1="73.075" x2="63.508" y2="128.151"/><linearGradient xlink:href="#b" id="c" x1="62.362" y1="98.174" x2="62.362" y2="76.261" gradientUnits="userSpaceOnUse"/></defs><path d="M63.79 8.64C1.48 8.64 0 78.5 0 92.33c0 13.83 28.56 25.03 63.79 25.03 35.24 0 63.79-11.21 63.79-25.03 0-13.83-1.47-83.69-63.79-83.69z" fill="#e2d635"/><path d="M96.46 97.46c-3.09 1.472-6.98.5-10.42 0-9.58-1.393-18-1.45-22.04-1.45-4.04 0-12.46.057-22.04 1.45-3.44.5-7.33 1.472-10.42 0-3.92-1.865-1.03-8.552 5.14-13.071 3.73-2.731 12.61-8.032 27.32-8.032s23.59 5.3 27.32 8.032c6.17 4.519 9.05 11.206 5.14 13.071z" fill="url(#c)"/><g fill="#2f2f2f"><path d="M98.77 56.74a2.627 2.627 0 0 1-2.72 1.76c-.21-.02-.42-.06-.63-.13-8.11-2.79-18.7-1.77-18.79-1.76-1.21.12-2.3-.58-2.73-1.68-.43-1.11-.04-2.37.91-3.07 8.51-6.17 21-9.13 21.52-9.24 1.43-.33 2.84.55 3.17 1.97.32 1.41-.56 2.83-1.97 3.16-.07.01-5.19 1.22-10.85 3.61 3.28.19 7.04.87 10.45 2.03 1.38.48 2.11 1.98 1.64 3.35zM29.23 56.74c.4 1.17 1.54 1.86 2.72 1.76.21-.02.42-.06.63-.13 8.11-2.79 18.7-1.77 18.79-1.76 1.21.12 2.3-.58 2.73-1.68.43-1.11.04-2.37-.91-3.07-8.51-6.17-21-9.13-21.52-9.24-1.43-.33-2.84.55-3.17 1.97-.32 1.41.56 2.83 1.97 3.16.07.01 5.19 1.22 10.85 3.61-3.28.19-7.04.87-10.45 2.03a2.628 2.628 0 0 0-1.64 3.35z"/></g><g fill="none" stroke="#2f2f2f" stroke-width="3" stroke-linecap="round" stroke-miterlimit="10"><path d="M35.585 31.086s-4.6 2.1-6.19 7.73M91.655 31.436s4.79 1.61 6.95 7.05"/></g><path d="M55.268 75.994zm-2.182.188zM64 76.357c-7.151 0-12.913 1.257-17.387 2.858-.006.028-.022.053-.027.082 0 0-4.2 20.064-9.658 25.662-5.458 5.598-15.65 13.656-15.65 13.656s-6.009 3.427-2.14 6.53c3.87 3.102 40.477 2.59 40.477 2.59s41.555-1.354 47.633-2.409c6.078-1.054.758-7.351.758-7.351s-11.068-8.755-16.336-16.088C86.4 94.554 79.975 81.064 79.975 81.064s-.73-1.659-2.004-2.925c-3.883-1.054-8.525-1.782-13.971-1.782zm13.97 1.782zm-31.357 1.076zm.186-.496c.25-.472.685-.872 1.27-1.207-.586.335-1.02.734-1.27 1.207zm1.27-1.207zm.632-.315zm20.934-.818c2.571.193 4.576.368 5.322.35-.746.018-2.752-.158-5.322-.35zm-18.535.11zm24.365.27c.06.009.118.023.178.034-.06-.011-.118-.025-.178-.033zm.494.108c.063.019.126.037.187.059a3.59 3.59 0 0 0-.187-.059zm.467.172c.062.028.125.053.185.084-.06-.03-.123-.056-.185-.084zm.191.088z" fill="url(#d)" fill-rule="evenodd" stroke-width="3.78" stroke-linecap="round" stroke-linejoin="round"/><path d="M114.458 119.971s-2.095-.997-2.557.37c-.461 1.365-.376 2.14 1.239 2.703 1.615.562 4.183 1.137 4.87.274.686-.862.23-1.909-1.066-2.42a77.895 77.895 0 0 0-2.486-.927z" fill="url(#e)" fill-rule="evenodd" stroke-width="3.78" stroke-linecap="round" stroke-linejoin="round"/><rect width="2.445" height="2.384" x="105.533" y="63.489" rx=".7" ry=".7" transform="rotate(30.557)" fill="#c19d2f" fill-opacity=".783" stroke-width="3.78" stroke-linecap="round" stroke-linejoin="round"/><rect transform="rotate(-28.076)" ry=".7" rx=".7" y="127.339" x="16.134" height="2.384" width="2.445" fill="#c18b2f" fill-opacity=".783" stroke-width="3.78" stroke-linecap="round" stroke-linejoin="round"/><rect width="1.608" height="1.567" x="103.867" y="44.776" rx=".7" ry=".7" transform="rotate(31.248)" fill="#c18b2f" fill-opacity=".783" stroke-width="3.78" stroke-linecap="round" stroke-linejoin="round"/><rect transform="rotate(75.385)" ry=".7" rx=".7" y="-19.303" x="115.717" height="2.384" width="2.445" fill="#ca9d2f" fill-opacity=".783" stroke-width="3.78" stroke-linecap="round" stroke-linejoin="round"/><rect width="1.964" height="1.836" x="101.157" y="-28.552" rx=".7" ry=".7" transform="matrix(.24124 .97047 -.96457 .26384 0 0)" fill="#ca9d2f" fill-opacity=".783" stroke-width="3.78" stroke-linecap="round" stroke-linejoin="round"/><rect width="2.445" height="2.384" x="-141.3" y="39.6" rx=".7" ry=".7" transform="rotate(-110.168)" fill="#6a8b2f" fill-opacity=".783" stroke-width="3.78" stroke-linecap="round" stroke-linejoin="round"/><path d="M78.508 78.734zM78.9 79.248zM46.586 79.297l-.5 2.178c.305-1.298.5-2.178.5-2.178zM79.486 80.143c.299.513.489.921.489.921s-.18-.392-.489-.921z" fill="url(#f)" fill-rule="evenodd" stroke-width="3.78" stroke-linecap="round" stroke-linejoin="round"/></svg>
